X:59
T:Woodland Flowers
C:Felix Burns (folk-processed)
Z:Jack Campin, http://www.campin.me.uk/
F:Jack Campin's Nine-Note Tunebook
% last edit 21-06-2014
M:6/8
L:1/8
Q:3/8=110
K:G
   D2B   A2G|D2B A2G|E2C E2G|c6     |\
[1 d2^c =c2A|B2G E2F|
                     G2B AGE|D6    :|\
[2 d2B   c2A|B2G E2F|G2D B2D|G6    ||
   BAG   D2D|BAG D2D|cBA E2E|cBA E2E|\
[1 F2G   F2E|D2c B2A|
                     GAB GFE|D6    :|\
[2 F2G   F2E|D2c B2A|G2D B2D|G6    |]

